X:1
T:Prelude For Time Feelers
T:Prelude For Time Feelers
T:Eluvium Arr.: Fred
C:Eluvium
%%score { 1 | ( 2 3 ) }
L:1/8
Q:3/8=70
M:6/8
K:D
V:1 treble nm="Piano" snm="Pno."
V:2 bass 
V:3 bass 
V:1
 D6 | F3 A3 | c6 | z6 | D6 | F3 A3 | c6 | z6 |1 B6 | A3 G3 | F6 | E6 :|2 B6 | A3 G3 | _B6 | A6 || %16
 D6 | z6 | z6 | z6 | D6 | F3 A3 | c6 | z6 | D6 | F3 A3 | c6 | z6 | B6 | A3 G3 | _B6 | A3 G3 | A6 | %33
 z6 | z6 | z6 |: FDF DFD | ADA DAD | cCc CcC | cEc EcE | FDF DFD | ADA DAD | FCF CFC | FCF CFC :| %44
 AEA EAE | GEG EGE | FDF DFD | ECE CEC |: FDF DFD | ADA DAD | cCc CcC | cEc EcE | FDF DFD | %53
 ADA DAD | FCF CFC | FCF CFC :| AEA EAE | GEG EGE | _BDB DBD | ACA CAC | FDF DFD | FDF DFD | %62
 FDF DFD | FDF DFD |: FDF DFD | ADA DAD | cCc CcC | cEc EcE | FDF DFD | ADA DAD | FCF CFC | %71
 FCF CFC :| AEA EAE | GEG EGE | _BDB DBD | ADA DGD | ACA CAC | ACA CAC | ACA CAC | ACA CAC | %80
 FDF DFD | FDF DFD | FDF DFD | FDF DFD | FDF DFD | FDF DFD | FA,F A,FA, | FA,F A,F!fermata!A, |] %88
V:2
 D,F,A, D,F,A, | D,F,A, D,F,A, | C,F,A, C,F,A, | C,F,A, C,F,A, | D,F,A, D,F,A, | D,F,A, D,F,A, | %6
 C,F,A, C,F,A, | C,F,A, C,F,A, |1 B,,E,G, B,,E,G, | B,,E,G, B,,E,G, | D,G,_B, D,G,B, | %11
 C,E,A, C,E,A, :|2 B,,E,G, B,,E,G, | B,,E,G, B,,E,G, | D,G,_B, D,G,B, | C,E,A, C,E,A, || %16
 D,F,A, D,F,A, | D,F,A, D,F,A, | D,F,A, D,F,A, | D,F,A, D,F,A, | D,F,A, D,F,A, | D,F,A, D,F,A, | %22
 C,F,A, C,F,A, | C,F,A, C,F,A, | D,F,A, D,F,A, | D,F,A, D,F,A, | C,F,A, C,F,A, | C,F,A, C,F,A, | %28
 B,,E,G, B,,E,G, | B,,E,G, B,,E,G, | D,G,_B, D,G,B, | D,G,_B, D,G,B, | C,E,A, C,E,A, | %33
 C,E,A, C,E,A, | C,E,A, C,E,A, | C,E,A, C,E,A, |: D,F,A, D,F,A, | D,F,A, D,F,A, | C,F,A, C,F,A, | %39
 C,F,A, C,F,A, | D,F,A, D,F,A, | D,F,A, D,F,A, | C,F,A, C,F,A, | C,F,A, C,F,A, :| B,,E,G, B,,E,G, | %45
 B,,E,G, B,,E,G, | D,G,_B, D,G,B, | C,E,A, C,E,A, |: D,F,A, D,F,A, | D,F,A, D,F,A, | %50
 C,F,A, C,F,A, | C,F,A, C,F,A, | D,F,A, D,F,A, | D,F,A, D,F,A, | C,F,A, C,F,A, | C,F,A, C,F,A, :| %56
 B,,E,G, B,,E,G, | B,,E,G, B,,E,G, | D,G,_B, D,G,B, | C,E,A, C,E,A, | D,F,A, D,F,A, | %61
 D,F,A, D,F,A, | A,,D,A, A,,D,A, | A,,D,A, A,,D,A, |: D,F,A, D,F,A, | D,F,A, D,F,A, | %66
 C,F,A, C,F,A, | C,F,A, C,F,A, | D,F,A, D,F,A, | D,F,A, D,F,A, | C,F,A, C,F,A, | C,F,A, C,F,A, :| %72
 B,,E,G, B,,E,G, | B,,E,G, B,,E,G, | D,G,_B, D,G,B, | D,G,_B, D,G,B, | C,E,A, C,E,A, | %77
 C,E,A, C,E,A, | C,E,A, C,E,A, | C,E,A, C,E,A, | D,F,A, D,F,A, | D,F,A, D,F,A, | A,,D,A, A,,D,A, | %83
 A,,D,A, A,,D,A, | D,,A,,D, D,,A,,D, | D,,A,,D, D,,A,,D, | D,,A,,D, D,,A,,D, | %87
 D,,A,,D, D,,A,,!fermata!D, |] %88
V:3
 x6 | x6 | x6 | x6 | x6 | x6 | x6 | x6 |1 x6 | x6 | x6 | x6 :|2 x6 | x6 | x6 | x6 || x6 | x6 | %18
 D,,6- | D,,6 | x6 | x6 | x6 | x6 | x6 | x6 | x6 | x6 | x6 | x6 | x6 | x6 | x6 | x6 | [A,,,A,,]6- | %35
 [A,,,A,,]6 |: x6 | x6 | x6 | x6 | x6 | x6 | x6 | x6 :| x6 | x6 | x6 | x6 |: x6 | x6 | x6 | x6 | %52
 x6 | x6 | x6 | x6 :| x6 | x6 | x6 | x6 | x6 | x6 | x6 | x6 |: x6 | x6 | x6 | x6 | x6 | x6 | x6 | %71
 x6 :| x6 | x6 | x6 | x6 | x6 | x6 | x6 | x6 | x6 | x6 | x6 | x6 | x6 | x6 | x6 | x6 |] %88

